images/tower_observation.svg

<?xml version="1.0" encoding="UTF-8" standalone="no"?>
<svg xmlns:dc="http://purl.org/dc/elements/1.1/" xmlns:cc="http://creativecommons.org/ns#" xmlns:rdf="http://www.w3.org/1999/02/22-rdf-syntax-ns#" xmlns:svg="http://www.w3.org/2000/svg" xmlns="http://www.w3.org/2000/svg" xmlns:sodipodi="http://sodipodi.sourceforge.net/DTD/sodipodi-0.dtd" xmlns:inkscape="http://www.inkscape.org/namespaces/inkscape" version="1.1" width="14" height="14" viewBox="0 0 14 14" id="svg2" sodipodi:docname="tower_observation.svg" inkscape:version="0.92.4 (5da689c313, 2019-01-14)">
  <sodipodi:namedview pagecolor="#ffffff" bordercolor="#666666" borderopacity="1" objecttolerance="10" gridtolerance="10" guidetolerance="10" inkscape:pageopacity="0" inkscape:pageshadow="2" inkscape:window-width="1881" inkscape:window-height="1051" id="namedview1565" showgrid="false" inkscape:pagecheckerboard="true" inkscape:zoom="16.857143" inkscape:cx="7" inkscape:cy="7" inkscape:window-x="0" inkscape:window-y="0" inkscape:window-maximized="1" inkscape:current-layer="svg2" />
  <metadata id="metadata8">
    <rdf:RDF>
      <cc:Work rdf:about="">
        <dc:format>image/svg+xml</dc:format>
        <dc:type rdf:resource="http://purl.org/dc/dcmitype/StillImage" />
        <dc:title></dc:title>
      </cc:Work>
    </rdf:RDF>
  </metadata>
  <defs id="defs6" />
  <path d="M 7,0 L 2,2 V 6 H 12 V 2 Z M 3,3 H 5 V 5 H 3 Z M 6,3 H 8 V 5 H 6 Z M 9,3 H 11 V 5 H 9 Z M 3.90625,6.625 L 3,14 H 4.5 L 4.6875,12.53125 L 7,11 L 9.3125,12.5625 L 9.5,14 H 11 L 10.09375,6.65625 Z M 5.34375,7.1875 L 8.65625,7.21875 L 8.84375,8.78125 L 7,10 L 5.15625,8.78125 Z M 5.03125,9.6875 L 6.25,10.5 L 4.8125,11.46875 Z M 8.96875,9.6875 L 9.1875,11.46875 L 7.75,10.5 Z" id="outline" style="opacity:0.5;fill:none;stroke:#fffff9;stroke-width:3;stroke-linecap:round;stroke-linejoin:round;stroke-miterlimit:4;stroke-dasharray:none;stroke-opacity:1" inkscape:connector-curvature="0" />
  <path id="water-tower" d="M 7 0 L 2 2 L 2 6 L 12 6 L 12 2 L 7 0 z M 3 3 L 5 3 L 5 5 L 3 5 L 3 3 z M 6 3 L 8 3 L 8 5 L 6 5 L 6 3 z M 9 3 L 11 3 L 11 5 L 9 5 L 9 3 z M 3.90625 6.625 L 3 14 L 4.5 14 L 4.6875 12.53125 L 7 11 L 9.3125 12.5625 L 9.5 14 L 11 14 L 10.09375 6.65625 L 3.90625 6.625 z M 5.34375 7.1875 L 8.65625 7.21875 L 8.84375 8.78125 L 7 10 L 5.15625 8.78125 L 5.34375 7.1875 z M 5.03125 9.6875 L 6.25 10.5 L 4.8125 11.46875 L 5.03125 9.6875 z M 8.96875 9.6875 L 9.1875 11.46875 L 7.75 10.5 L 8.96875 9.6875 z " />
</svg>

<svg xmlns="http://www.w3.org/2000/svg" width="14" height="14">
    <path d="M7 0L2 2v4h10V2zM3 3h2v2H3zm3 0h2v2H6zm3 0h2v2H9zM3.906 6.625L3 14h1.5l.188-1.469L7 11l2.313 1.563L9.5 14H11l-.906-7.344zm1.438.563l3.312.03.188 1.563L7 10 5.156 8.781zm-.313 2.5l1.219.812-1.438.969zm3.938 0l.219 1.78L7.75 10.5z" opacity=".5" fill="none" stroke="#fffff9" stroke-width="3" stroke-linecap="round" stroke-linejoin="round"/>
    <path d="M7 0L2 2v4h10V2L7 0zM3 3h2v2H3V3zm3 0h2v2H6V3zm3 0h2v2H9V3zM3.906 6.625L3 14h1.5l.188-1.469L7 11l2.313 1.563L9.5 14H11l-.906-7.344-6.188-.031zm1.438.563l3.312.03.188 1.563L7 10 5.156 8.781l.188-1.594zm-.313 2.5l1.219.812-1.438.969.22-1.781zm3.938 0l.219 1.78L7.75 10.5l1.219-.813z"/>
</svg>
